archdroid-icon-theme/Archdroid-Amber/actions/scalable/package-installed-locked.svg

<?xml version="1.0" encoding="UTF-8" standalone="no"?>
<svg
   xmlns:dc="http://purl.org/dc/elements/1.1/"
   xmlns:cc="http://creativecommons.org/ns#"
   xmlns:rdf="http://www.w3.org/1999/02/22-rdf-syntax-ns#"
   xmlns:svg="http://www.w3.org/2000/svg"
   xmlns="http://www.w3.org/2000/svg"
   xmlns:sodipodi="http://sodipodi.sourceforge.net/DTD/sodipodi-0.dtd"
   xmlns:inkscape="http://www.inkscape.org/namespaces/inkscape"
   fill="#4caf50"
   width="48"
   height="48"
   viewBox="0 0 48 48"
   id="svg2"
   version="1.1"
   inkscape:version="0.91 r13725"
   sodipodi:docname="package-installed-locked.svg">
  <metadata
     id="metadata10">
    <rdf:RDF>
      <cc:Work
         rdf:about="">
        <dc:format>image/svg+xml</dc:format>
        <dc:type
           rdf:resource="http://purl.org/dc/dcmitype/StillImage" />
        <dc:title></dc:title>
      </cc:Work>
    </rdf:RDF>
  </metadata>
  <defs
     id="defs8" />
  <sodipodi:namedview
     pagecolor="#ffffff"
     bordercolor="#666666"
     borderopacity="1"
     objecttolerance="10"
     gridtolerance="10"
     guidetolerance="10"
     inkscape:pageopacity="0"
     inkscape:pageshadow="2"
     inkscape:window-width="1366"
     inkscape:window-height="713"
     id="namedview6"
     showgrid="false"
     inkscape:zoom="3.795750125125504"
     inkscape:cx="-30.19250862067931"
     inkscape:cy="23.74475096472008"
     inkscape:window-x="0"
     inkscape:window-y="30"
     inkscape:window-maximized="1"
     inkscape:current-layer="svg2" />
  <path
     d="M 10 6 C 7.79 6 6.000000000000001 7.790000000000001 6 10 L 6 38 C 6 40.21 7.790000000000001 42 10 42 L 38 42 C 40.21 42 42 40.21 42 38 L 42 10 C 42 7.79 40.21 6.000000000000001 38 6 L 10 6 z M 24 10 C 27.68 9.999999999999995 30.666015625 12.986015625 30.666015625 16.666015625 L 30.666015625 19.333984375 L 32 19.333984375 C 33.47333333333334 19.333984375 34.666015625 20.52666666666666 34.666015625 22 L 34.666015625 35.333984375 C 34.66601562500001 36.80731770833332 33.47333333333335 38 32 38 L 16 38 C 14.5266666666667 38 13.33398437499996 36.80731770833334 13.333984375 35.333984375 L 13.333984375 22 C 13.333984375 20.52666666666668 14.52666666666671 19.333984375 16 19.333984375 L 17.333984375 19.333984375 L 17.333984375 16.666015625 C 17.333984375 12.98601562500001 20.31999999999999 10 24 10 z M 24 12.533203125 C 21.72000000000002 12.533203125 19.8671875 14.38601562500001 19.8671875 16.666015625 L 19.8671875 19.333984375 L 28.1328125 19.333984375 L 28.1328125 16.666015625 C 28.1328125 14.38601562500001 26.28 12.533203125 24 12.533203125 z M 24 26 C 22.52666666666668 26.00000000000001 21.333984375 27.19268229166669 21.333984375 28.666015625 C 21.333984375 30.13934895833333 22.52666666666666 31.333984375 24 31.333984375 C 25.47333333333334 31.333984375 26.666015625 30.13934895833333 26.666015625 28.666015625 C 26.666015625 27.19268229166669 25.47333333333333 26 24 26 z "
     id="path4164" />
</svg>

<svg xmlns="http://www.w3.org/2000/svg" fill="#4caf50" viewBox="0 0 48 48"><path d="m10 6c-2.21 0-4 1.79-4 4v28c0 2.21 1.79 4 4 4h28c2.21 0 4-1.79 4-4v-28c0-2.21-1.79-4-4-4h-28m14 4c3.68 0 6.666 2.986 6.666 6.666v2.668h1.334c1.473 0 2.666 1.193 2.666 2.666v13.334c0 1.473-1.193 2.666-2.666 2.666h-16c-1.473 0-2.666-1.193-2.666-2.666v-13.334c0-1.473 1.193-2.666 2.666-2.666h1.334v-2.668c0-3.68 2.986-6.666 6.666-6.666m0 2.533c-2.28 0-4.133 1.853-4.133 4.133v2.668h8.266v-2.668c0-2.28-1.853-4.133-4.133-4.133m0 13.467c-1.473 0-2.666 1.193-2.666 2.666 0 1.473 1.193 2.668 2.666 2.668 1.473 0 2.666-1.195 2.666-2.668 0-1.473-1.193-2.666-2.666-2.666"/></svg>
